packages/katcn/src/icons/svg/brush-solid.svg

<svg width="24" height="25" viewBox="0 0 24 25" fill="none" xmlns="http://www.w3.org/2000/svg">
<path d="M22.4 2.46802C21.6 1.76802 20.5 1.76802 19.5 2.56802C16.3 5.06802 13.2 8.36802 10.1 12.368C10.4 12.468 10.7 12.568 11 12.768C11.3 12.968 11.6 13.068 11.9 13.268C12.2 13.568 12.5 13.768 12.8 14.168C13 14.468 13.2 14.668 13.4 14.968C13.4 14.968 13.4 15.068 13.5 15.068C13.7 15.368 13.8 15.568 13.9 15.868C17.4 12.568 20.3 9.06802 22.6 5.36802C23.2 4.36802 23.1 3.16802 22.4 2.46802Z" fill="black"/>
<path d="M11.9 16.368C11.9 16.268 11.8 16.168 11.8 16.068C11.7 15.868 11.5 15.668 11.4 15.468C11.2 15.268 11 15.068 10.7 14.868C10.4 14.668 10.1 14.468 9.8 14.368C9.5 14.268 9.1 14.168 8.8 14.068C8.6 14.068 8.4 14.068 8.2 14.068C7.4 14.068 6.7 14.268 6 14.668C5.5 14.968 5.1 15.468 4.7 15.968C4.7 15.968 4.7 15.968 4.7 16.068C4 17.068 3.9 17.968 3.7 18.868C3.5 20.168 3.4 20.968 1.5 21.668C1.2 21.768 1 22.068 1 22.468C1 22.868 1.2 23.168 1.5 23.268C2.6 23.668 3.8 23.968 5 23.968C7.9 23.968 10.8 22.668 12 20.168C12.4 19.268 12.5 18.368 12.3 17.368C12.2 17.068 12.1 16.668 11.9 16.368Z" fill="black"/>
</svg>

<svg xmlns="http://www.w3.org/2000/svg" fill="none" viewBox="0 0 24 25"><path fill="#000" d="M22.4 2.468c-.8-.7-1.9-.7-2.9.1-3.2 2.5-6.3 5.8-9.4 9.8.3.1.6.2.9.4s.6.3.9.5c.3.3.6.5.9.9.2.3.4.5.6.8 0 0 0 .1.1.1.2.3.3.5.4.8q5.25-4.95 8.7-10.5c.6-1 .5-2.2-.2-2.9m-10.5 13.9c0-.1-.1-.2-.1-.3-.1-.2-.3-.4-.4-.6-.2-.2-.4-.4-.7-.6s-.6-.4-.9-.5-.7-.2-1-.3h-.6c-.8 0-1.5.2-2.2.6-.5.3-.9.8-1.3 1.3v.1c-.7 1-.8 1.9-1 2.8-.2 1.3-.3 2.1-2.2 2.8-.3.1-.5.4-.5.8s.2.7.5.8c1.1.4 2.3.7 3.5.7 2.9 0 5.8-1.3 7-3.8.4-.9.5-1.8.3-2.8-.1-.3-.2-.7-.4-1"/></svg>
